X:1
T:Go Forth
T:Go Forth
T:Charles Hutchinson Gabriel
T:Frances Jane (Fanny) Crosby, 1901
T:Public Domain Courtesy of the Cyber Hymnal
C:Charles Hutchinson Gabriel
Z:Public Domain
Z:Courtesy of the Cyber Hymnal
%%score ( 1 2 ) ( 3 4 )
L:1/8
Q:1/4=108
M:2/4
K:Eb
V:1 treble 
V:2 treble 
V:3 bass 
V:4 bass 
V:1
 E2 | [EG]3 [EF] (EF) ([EG][FA]) | [GB]4 [EG]2 (ed) | [Ec]2 (de) [EB]2 ([DA][EG]) | %4
w: 1.~Go|forth with joy * and *|glad- ness, Go *|forth with * love and *|
w: 2.~Go|forth with joy * and *|glad- ness, And *|spread the * news a- *|
w: 3.~Go|forth with joy * and *|glad- ness, Pro- *|claim the * wel- come *|
 ([EG]4 [DF]2) E2 | [EG]3 [EF] (EF) ([EG][FA]) | [GB]4 [FB]2 [Gc]2 | [Fd]2 ([Ec][DB]) [E=A]2 (Bc) | %8
w: song; * All|hon- or, praise * and *|glo- ry To|Christ our * Lord be- *|
w: far; * Be-|hold, He sends * be- *|fore us A|bright and * love- ly *|
w: sound, * Till|all shall hear * the *|sto- ry To|earth’s re- * mot- est *|
 [DB]4- [DB] ||"^Refrain" Bc d | (z [Ae]2) dc x5 | B6 [Ge]2 | [Fd]2 ([DF][EG]) ([FA][GB]) [Ac]2 | %13
w: long. *|He has re-|* deemed us|by His|blood. Re- * deemed * us|
w: star. *|||||
w: bound. *|||||
 ([GB]4 [EG]2) [EB]2 | [Ec]2 [Ec]>[Ec]cedc | B6 [Ge]2 | [Fd]2 ([DF][EG]) (Ac) [DB]2 | E6 |] %18
w: from * our|sin; Ga- ther all the lost ones|to His|fold, O * haste, * and|bring|
w: |||||
w: |||||
V:2
 E2 | x4 E2 x2 | x6 E2 | x2 E2 x4 | x6 E2 | x4 E2 x2 | x8 | x6 E2 | x5 || x3 | e4 (GAB) x A2 | %11
 (GF EF G2) x2 | x8 | x8 | x4 E2 E2 | (E2 D2 E2) x2 | x4 D2 x2 | E6 |] %18
V:3
 [E,G,]2 | [E,B,]3 [E,B,] (G,A,) [E,B,]2 | [E,E]4 [E,B,]2 [G,B,]2 | A,2 (B,C) [G,B,]2 B,2 | %4
w: ~|~ ~ ~ * ~|~ ~ ~|~ ~ * ~ ~|
 [B,,B,]6 [E,G,]2 | [E,B,]3 [E,A,] (G,A,) [E,B,]2 | [E,E]4 [D,B,]2 [E,B,]2 | %7
w: ~ ~|~ ~ ~ * ~|~ ~ ~|
 [F,B,]2 (=A,B,) [F,C]2 [F,A,]2 | [B,,B,]4- [B,,B,] || z3 | %10
w: ~ ~ * ~ ~|~ *||
 z [E,B,] [F,B,][G,_D] [A,C]2 [A,,E]2 x2 | (EB,) (G,B,) [E,E]2 [E,B,]2 | [B,,B,]4 (B,2 D2) | %13
w: He has re- deemed us|by * His * blood, Re-|deemed us *|
 [E,E]2 [E,E]2 [E,B,]2 [E,G,]2 | A,2 A,>A, (A,C) (B,A,) | [G,B,]2 [F,A,]2 [E,G,]2 [E,B,]2 | %16
w: from our sin; ~|~ ~ ~ ~ * ones *|to His fold, *|
 [B,,B,]2 [B,,B,]2 [B,,B,]2 [B,,A,]2 | [E,G,]6 |] %18
w: ||
V:4
 x2 | x4 E,2 x2 | x8 | A,2 A,2 x (F,E,) x | x8 | x4 E,2 x2 | x8 | x2 F,2 x4 | x5 || x3 | x10 | %11
 E,2 E,2 x4 | x4 B,,4 | x8 | A,2 A,>A, A,2 A,2 | x8 | x8 | x6 |] %18

